assets/azurereservedcapacity/original.svg

<svg height="18" viewBox="0 0 18 18" width="18" xmlns="http://www.w3.org/2000/svg"><path d="m15.433 9.341-1.712 1.006-1.716 1.007-3.007 1.765-3.006-1.765-1.713-1.007-1.712-1.006 6.431-3.782z" fill="#a33a85"/><path d="m15.433 9.341v3.222l-6.435 3.778-6.431-3.778v-3.222l1.712 1.006 1.713 1.007 3.006 1.765 3.007-1.765 1.716-1.007z" fill="#59285f"/><path d="m16.755 4.794v8.416a.56.56 0 0 1 -.281.49l-7.186 4.222a.57.57 0 0 1 -.288.078v-8.978l7.679-4.51a.57.57 0 0 1 .076.282" fill="#a33a85" opacity=".6"/><path d="m16.68 4.512-7.68 4.499v.011l-7.68-4.511a.55.55 0 0 1 .206-.211l7.192-4.225a.57.57 0 0 1 .57 0l7.189 4.227a.57.57 0 0 1 .203.21" fill="#dc92bf" opacity=".6"/><path d="m9 9.022v8.978a.55.55 0 0 1 -.284-.077l-7.19-4.223a.56.56 0 0 1 -.281-.49v-8.419a.56.56 0 0 1 .075-.28z" fill="#ce74b6" opacity=".6"/></svg>

<svg xmlns="http://www.w3.org/2000/svg" width="18" height="18" viewBox="0 0 18 18"><g id="b4e61687-1685-4b95-b0e0-cb4273a10651"><path fill="#a33a85" d="m15.433 9.341-1.712 1.006-1.716 1.007-3.007 1.765-3.006-1.765-1.713-1.007-1.712-1.006 6.431-3.782z"/><path fill="#59285f" d="M15.433 9.341v3.222l-6.435 3.778-6.431-3.778V9.341l1.712 1.006 1.713 1.007 3.006 1.765 3.007-1.765 1.716-1.007z"/><path fill="#a33a85" d="M16.755 4.794v8.416a.56.56 0 0 1-.281.49l-7.186 4.222A.57.57 0 0 1 9 18V9.022l7.679-4.51a.57.57 0 0 1 .076.282" opacity=".6"/><path fill="#dc92bf" d="M16.68 4.512 9 9.011v.011L1.32 4.511a.55.55 0 0 1 .206-.211L8.718.075a.57.57 0 0 1 .57 0l7.189 4.227a.57.57 0 0 1 .203.21" opacity=".6"/><path fill="#ce74b6" d="M9 9.022V18a.55.55 0 0 1-.284-.077L1.526 13.7a.56.56 0 0 1-.281-.49V4.791a.56.56 0 0 1 .075-.28Z" opacity=".6"/></g></svg>
